icons/mobile/16/svg/external-link-16.svg

<svg width="16" height="16" viewBox="0 0 16 16" fill="none" xmlns="http://www.w3.org/2000/svg">
<path d="M7.5 4.25879C6.75507 4.26879 6.02211 4.29469 5.28418 4.34668C4.70429 4.38867 4.25017 4.88282 4.25 5.47168V10.5273C4.25018 11.1171 4.71393 11.6112 5.30566 11.6543C7.1006 11.7813 8.92089 11.7813 10.7158 11.6523C11.2957 11.6104 11.7498 11.1162 11.75 10.5273V8.49902H13V10.5264C12.9998 11.7672 12.0355 12.8095 10.8057 12.8975C9.87478 12.9654 8.93088 12.999 8 12.999C7.076 12.999 6.13982 12.9654 5.21582 12.8994C3.97401 12.8113 3.00019 11.7682 3 10.5264V5.4707C3.00016 4.22984 3.96443 3.1876 5.19434 3.09961C5.96221 3.04463 6.72512 3.01879 7.5 3.00879V4.25879Z" fill="black"/>
<path d="M12.5342 3C12.791 3.00009 12.9999 3.20896 13 3.46582V6.53418C12.9999 6.94898 12.4981 7.15699 12.2051 6.86328L11.1133 5.77148L8.06836 8.81738C7.94636 8.93937 7.78499 9 7.625 9C7.465 9 7.30462 8.93938 7.18262 8.81738C6.93962 8.57338 6.93962 8.17564 7.18262 7.93164L10.2275 4.88574L9.13672 3.79492C8.84404 3.50194 9.05104 3.00016 9.46582 3H12.5342Z" fill="black"/>
</svg>

<!-- This Source Code Form is subject to the terms of the Mozilla Public
   - License, v. 2.0. If a copy of the MPL was not distributed with this
   - file, You can obtain one at http://mozilla.org/MPL/2.0/. -->
<svg xmlns="http://www.w3.org/2000/svg" width="16" height="16" fill="none" viewBox="0 0 16 16">
    <path fill="#000" d="M7.5 4.259a39 39 0 0 0-2.216.088A1.126 1.126 0 0 0 4.25 5.472v5.055c0 .59.464 1.084 1.056 1.127a38 38 0 0 0 5.41-.002 1.126 1.126 0 0 0 1.034-1.125V8.5H13v2.027a2.38 2.38 0 0 1-2.194 2.372 39 39 0 0 1-5.59.001A2.39 2.39 0 0 1 3 10.526V5.471A2.38 2.38 0 0 1 5.194 3.1 39 39 0 0 1 7.5 3.009z" />
    <path fill="#000" d="M12.534 3c.257 0 .466.209.466.466v3.068a.466.466 0 0 1-.795.33L11.113 5.77 8.068 8.817a.626.626 0 0 1-.885-.885l3.044-3.046-1.09-1.091A.466.466 0 0 1 9.466 3z" />
</svg>
